tools/download-figma-icons/icons/outlined-large/detached-house-alternative.svg

<svg width="64" height="64" viewBox="0 0 64 64" fill="none" xmlns="http://www.w3.org/2000/svg">
<path fill-rule="evenodd" clip-rule="evenodd" d="M33.05 0.4275L63.55 30.4275C64.14 31.0075 64.15 31.9575 63.57 32.5475C63.28 32.8475 62.88 32.9975 62.5 32.9975C62.12 32.9975 61.74 32.8575 61.45 32.5675L55 26.2275V62.4975C55 63.3275 54.33 63.9975 53.5 63.9975H10.5C9.67004 63.9975 9.00004 63.3275 9.00004 62.4975V26.2275L2.55004 32.5675C1.96004 33.1475 1.01004 33.1375 0.430043 32.5475C-0.149957 31.9575 -0.139957 31.0075 0.450043 30.4275L30.95 0.4275C31.53 -0.1425 32.47 -0.1425 33.05 0.4275ZM23 48.9975V60.9975H29V48.9975H23ZM52 60.9975V23.4975V23.4875C52 23.4525 52.005 23.42 52.01 23.3875C52.015 23.355 52.02 23.3225 52.02 23.2875L32 3.5975L11.98 23.2975C11.99 23.3575 12 23.4275 12 23.4975V60.9975H20V47.4975C20 46.6675 20.67 45.9975 21.5 45.9975H30.5C31.33 45.9975 32 46.6675 32 47.4975V60.9975H52ZM30.5 36.9976V28.9976C30.5 28.1676 31.17 27.4976 32 27.4976H45C45.83 27.4976 46.5 28.1676 46.5 28.9976V36.9976C46.5 37.8276 45.83 38.4976 45 38.4976H32C31.17 38.4976 30.5 37.8276 30.5 36.9976ZM43.5 30.4976H33.5V35.4976H43.5V30.4976Z" fill="black"/>
</svg>

<svg width="64" height="64" viewBox="0 0 64 64" fill="none" xmlns="http://www.w3.org/2000/svg"><path fill-rule="evenodd" clip-rule="evenodd" d="m33.05.427 30.5 30a1.5 1.5 0 0 1-2.1 2.14L55 26.228v36.27c0 .83-.67 1.5-1.5 1.5h-43c-.83 0-1.5-.67-1.5-1.5v-36.27l-6.45 6.34a1.5 1.5 0 0 1-2.1-2.14l30.5-30c.58-.57 1.52-.57 2.1 0ZM23 48.998v12h6v-12h-6Zm29 12v-37.51c0-.034.005-.067.01-.1.005-.032.01-.064.01-.1L32 3.598l-20.02 19.7c.01.06.02.13.02.2v37.5h8v-13.5c0-.83.67-1.5 1.5-1.5h9c.83 0 1.5.67 1.5 1.5v13.5h20Zm-21.5-24v-8c0-.83.67-1.5 1.5-1.5h13c.83 0 1.5.67 1.5 1.5v8c0 .83-.67 1.5-1.5 1.5H32c-.83 0-1.5-.67-1.5-1.5Zm13-6.5h-10v5h10v-5Z" fill="currentColor"/></svg>
